!! 00003] TT[TB
!! Y 82
!!!OTL: Sanshili pu
!!!ARE: Asia, China, Shanxi, Suide
!! Ethnic Group: Han
!! I, 74
!!!SCT: C0023
!!!YEM: Copyright 1995, estate of Helmut Schaffrath.
**kern
*ICvox
*Ivox
!! Mixed meters:  2/4; 3/8
*M2/4
*k[]
*C:
{8cc
4dd
8dd
=1
8gg
4cc
8a
=2
8.g
16a
8g
8d
=3
2g}
=4
{8cc
4dd
8dd
=5
8gg
4cc
8a
=6
8.g
16a
8g
8d
=7
2g}
=8
{8cc
4f
8g
=9
8cc
4cc
8a
=10
8.g
16a
8g
8d
=11
2g}
=12
{8.f
16f
8e
8d
=13
8c
8d
8g
8d
=14
2c}
==
!!!AGN: Shange, Shanqu
!! Als Tonbeispiel vorhanden; Signatur: 00151 (LIAO1), Cut Nr.: 15
!!    und Signatur 00156 (SCHULB7) , Asien2 (Schaffrath) ; im Buch
!!    mit deutscher Uebersetzung.
!!    Noch einmal auf zwei anderen Baendern.
!!    Band 3 kommerziell aber gute Version: Korrekturen a. d. Noten.
!!    Dies ist die Chorversion. Das eigentliche Volkslied wird in den ersten
!!    vier Phrasen von einem Solo-Sopran vorgestellt, vom gemischten Chor
!!    (SATB) begleitet. Nach der Wiederholung singen im 3/8-Teil Sopran und
!!    Tenor die Melodie. Dann D.C., aber Fine nicht angegeben.
!!    Pinyin-Text der ersten Strophe vorhanden!
!!    Der Shanxi-Ton soll von der Solistin hier richtig getroffen sein.
!!!ONB: ESAC (Essen Associative Code) Database: CHINA_007
!!!AMT: irregular
!!!AIN: vox
!!!EED: Helmut Schaffrath
!!!EEV: 1.0
*-
